!! 00000] TT[00
!! NN
!!!OTL: Qing liuliu de Qingdiao
!!!ARE: Gansu, Linxia (SÅd)
!! Ethnic Group: Hui
!! I, 136
!!!SCT: C0390
!!!YEM: Copyright 1995, estate of Helmut Schaffrath.
**kern
*ICvox
*Ivox
*M3/4
*k[b-]
*F:
{4a
8a
8cc
16dd
16ff
8cc
=1
8a
8cc
4dd
8cc
8a}
=2
{8cc
8a
4dd
16dd
16ff
8cc
=3
8cc
8a
8a
8d
4r}
=4
{4cc
4dd
8dd
8gg
=5
4dd
8cc
8a
8cc
8a}
=6
{4g
8g
8f
8g
8f
=7
2.g}
=8
{8a
8cc
8g
8f
8d
8c
=9
2.d}
==
!!!AGN: Fengsu ge, Yanxi qu. Huanju changhe chang
!! ++++ FALSCH! Meldie hat typischen Henan- Charakter (oder nordchinesischen);
!!    typisch auch die 6 Toene fuer Henan und Shandong. Das richtige Lied?? Der
!!    Titel im Buch ist laenger. +++ steht nicht bei der angegebenen Seitenzahl
!!    +++
!!!ONB: ESAC (Essen Associative Code) Database: CHINA
!!!AMT: simple triple
!!!AIN: vox
!!!EED: Helmut Schaffrath
!!!EEV: 1.0
*-
